fa/svgs/regular/hospital.svg

<svg xmlns="http://www.w3.org/2000/svg" viewBox="0 0 640 512"><!--! Font Awesome Free 6.1.1 by @fontawesome - https://fontawesome.com License - https://fontawesome.com/license/free (Icons: CC BY 4.0, Fonts: SIL OFL 1.1, Code: MIT License) Copyright 2022 Fonticons, Inc.--><path d="M296 96c0-8.84 7.2-16 16-16h16c8.8 0 16 7.16 16 16v24h24c8.8 0 16 7.2 16 16v16c0 8.8-7.2 16-16 16h-24v24c0 8.8-7.2 16-16 16h-16c-8.8 0-16-7.2-16-16v-24h-24c-8.8 0-16-7.2-16-16v-16c0-8.8 7.2-16 16-16h24V96zM408 0c39.8 0 72 32.24 72 72v8h88c39.8 0 72 32.2 72 72v288c0 39.8-32.2 72-72 72H71.98C32.19 512 0 479.8 0 440V152c0-39.8 32.24-72 72-72h88v-8c0-39.76 32.2-72 72-72h176zm72 128v336h88c13.3 0 24-10.7 24-24V336h-56c-13.3 0-24-10.7-24-24s10.7-24 24-24h56v-48h-56c-13.3 0-24-10.7-24-24s10.7-24 24-24h56v-40c0-13.3-10.7-24-24-24h-88zM48 152v40h56c13.3 0 24 10.7 24 24s-10.7 24-24 24H48v48h56c13.3 0 24 10.7 24 24s-10.7 24-24 24H48v104c0 13.3 10.74 24 23.98 24H160V128H72c-13.25 0-24 10.7-24 24zm160 312h64v-64c0-26.5 21.5-48 48-48s48 21.5 48 48v64h64V72c0-13.25-10.7-24-24-24H232c-13.3 0-24 10.75-24 24v392z"/></svg>

<svg xmlns="http://www.w3.org/2000/svg" viewBox="0 0 640 512"><!--! Font Awesome Free 6.2.1 by @fontawesome - https://fontawesome.com License - https://fontawesome.com/license/free (Icons: CC BY 4.0, Fonts: SIL OFL 1.1, Code: MIT License) Copyright 2022 Fonticons, Inc. --><path d="M296 96C296 87.16 303.2 80 312 80H328C336.8 80 344 87.16 344 96V120H368C376.8 120 384 127.2 384 136V152C384 160.8 376.8 168 368 168H344V192C344 200.8 336.8 208 328 208H312C303.2 208 296 200.8 296 192V168H272C263.2 168 256 160.8 256 152V136C256 127.2 263.2 120 272 120H296V96zM408 0C447.8 0 480 32.24 480 72V80H568C607.8 80 640 112.2 640 152V440C640 479.8 607.8 512 568 512H71.98C32.19 512 0 479.8 0 440V152C0 112.2 32.24 80 72 80H160V72C160 32.24 192.2 0 232 0L408 0zM480 128V464H568C581.3 464 592 453.3 592 440V336H536C522.7 336 512 325.3 512 312C512 298.7 522.7 288 536 288H592V240H536C522.7 240 512 229.3 512 216C512 202.7 522.7 192 536 192H592V152C592 138.7 581.3 128 568 128H480zM48 152V192H104C117.3 192 128 202.7 128 216C128 229.3 117.3 240 104 240H48V288H104C117.3 288 128 298.7 128 312C128 325.3 117.3 336 104 336H48V440C48 453.3 58.74 464 71.98 464H160V128H72C58.75 128 48 138.7 48 152V152zM208 464H272V400C272 373.5 293.5 352 320 352C346.5 352 368 373.5 368 400V464H432V72C432 58.75 421.3 48 408 48H232C218.7 48 208 58.75 208 72V464z"/></svg>
